X: 19514
T: Jacob's Join
R: jig
M: 6/8
K: Dmajor
|:A|d2 A BAG|FGE D3|DFA D2 A|DGB EGc|
d2 A BAG|FGE D3|DF/G/A DGB|c^Bc d2:|
|:E|DFA D2 A|DGB D2 B|DFA DF/G/A|EE/F/G AFE|
[1 D2 A DFA|D2 B DGB|FAD B2 A|GFE F2:|
[2 DFA DF/G/A|DGB DG/A/B|A^GA B^AB|c^Bc d2||

